X:601
M:6/8
L:1/8
K:D
|:(3A/B/c/|d2d def|ABA Fdc|Bcd efg|d2f|ecA|FED def|efg ecA|FDG ECE|DED D2:|

